X:1
T:Title
L:1/8
Q:1/4=100
M:6/8
K:C
V:1 treble nm="Church Organ, Staff"
V:1
 EFE A2 A | GEG- G/ z/ EA- | AAB BdB- | BBA- A3/2 z/ A- | AAA BBd- | ded- d/ z/ EB- | BBA EDE- | %7
w: By~V.~B.~Crowther\-Benyon * * * *|||||||
 EEE- E3/2 z/ E | F A2 A G2 | E G2 E A2 | A B2 BBd | e d2- d/ z/ d2 | d B2 B B2 | A E2 G A2 | %14
w: |||||||
 B A2 d d2 | B d2- d/ z/ z z |] %16
w: ||

